X:1
T:Imaginary Trouble
M:4/4
L:1/4
K:F
 C| F AG/2-F/2D/2-C/2| C2 z A| B c d B| A/2 G3/2 z c| AG/2-F/2 DD/2-C/2|\
 C2 z F| D C A,C/2-E/2| F/2 F3/2 z||
